svg/file-submodule.svg

<svg height="1024" width="896" xmlns="http://www.w3.org/2000/svg">
  <path d="M832 512c-32 0-192 0-192 0 0-32-32-64-64-64s-96 0-128 0-64 32-64 64 0 320 0 320h512s0-224 0-256-32-64-64-64z m-256 64h-128s0-17 0-32 15-32 32-32 48 0 64 0 32 15 32 32 0 32 0 32z m256-320c-32 0-336 0-352 0s-32-17-32-32 0 0 0-32-32-64-64-64-288 0-320 0-64 32-64 64 0 640 0 640h320s0-352 0-384 32-64 64-64 224 0 256 0 64 32 64 64h192s0-96 0-128-32-64-64-64z m-448 0h-320s0-16 0-32 16-32 32-32 240 0 256 0 32 17 32 32 0 32 0 32z" />
</svg>

<svg height="1024" width="896" xmlns="http://www.w3.org/2000/svg">
  <path d="M832 512H640c0 0 2-64-64-64s-64 0-128 0-64 64-64 64v320h512c0 0 0-190 0-256S832 512 832 512zM576 576H448v-32c0 0 0-32 32-32h64c32 0 32 32 32 32V576zM832 256c0 0-320 0-352 0s-32-32-32-32v-32c0 0 0-64-64-64H64c-64 0-64 64-64 64v640h320V448c0-62 64-64 64-64s190 0 256 0 64 64 64 64h192V320C896 254 832 256 832 256zM384 256H64v-32c0 0 0-32 32-32h256c32 0 32 32 32 32V256z" />
</svg>
